svg/24/logo-facebook.svg

<svg width="24" height="24" viewBox="0 0 24 24" fill="currentColor" xmlns="http://www.w3.org/2000/svg"><path d="M22 12C22 6.4772 17.5228 2 12 2C6.4772 2 2 6.4772 2 12C2 16.6896 5.2288 20.6248 9.5844 21.7056V15.056H7.5224V12H9.5844V10.6832C9.5844 7.2796 11.1248 5.702 14.4664 5.702C15.1 5.702 16.1932 5.8264 16.6404 5.9504V8.7204C16.4044 8.6956 15.9944 8.6832 15.4852 8.6832C13.8456 8.6832 13.212 9.3044 13.212 10.9192V12H16.4784L15.9172 15.056H13.212V21.9268C18.1636 21.3288 22.0004 17.1128 22.0004 12H22Z"/></svg>

<svg xmlns="http://www.w3.org/2000/svg" width="24" height="24" fill="currentColor" viewBox="0 0 24 24">
  <path d="M22 12c0-5.523-4.477-10-10-10S2 6.477 2 12c0 4.69 3.229 8.625 7.584 9.706v-6.65H7.522V12h2.062v-1.317c0-3.403 1.54-4.981 4.882-4.981.634 0 1.727.124 2.174.248v2.77a12.853 12.853 0 0 0-1.155-.037c-1.64 0-2.273.621-2.273 2.236V12h3.266l-.56 3.056h-2.706v6.87A9.997 9.997 0 0 0 22 12Z"/>
</svg>
